X: 168
T: Christina Reid's (jig)
N: 034018
C: BB
L: 1/8
M: 6/8
R: jig
Q: 1/4=160
K: A
E|"A"EAc "Bm"BAF|"A"EAc "D"dcd|"A"ecA "Bm"fdB|"A"ecA "E"B2G|
"A"EAc "Bm"BAF|"A"Ace "D"agf|"A"ecA "D"dAF|"E"EFG "A"A2 :|
c/d/|"A"ece "D"agf|"A"efe "F#m"ecA|"D"dcB "A"cBA|"E"FGA B2 c/d/|
"A"ece "D"agf|"A"efe ecA|"F#m"FAc "Bm"BAF|"E"EFG "A"A2 :|
%%%%%%%%%%%%%%%%%%%%
